X: 16246
T: Greig's Pipes
R: reel
M: 4/4
K: Gmajor
B2 B2 BAGA|B2 GB AGED|B3 A BAGB|AGBG AGED|
B3 A BAGA|B2 dB AGEG|Beed BddB|AGBG EGEG||
DGGF DGBG|DGBG AGEG|DGGF GABc|dBAc BGGE|
DGGF G3 E|DGBG AGEG|DGGF GABc|dBAc BGGB||
d2 Bd efge|d2 BG AGEe|d2 Bd efge|agbg baeg|
d2 Bd efge|d2 BG AGEe|d2 Bd efge|agbg baed||

